assets/img/braze_icons/snowflake-01.svg

<svg fill="none" height="24" viewBox="0 0 24 24" width="24" xmlns="http://www.w3.org/2000/svg"><path d="m8.29289 1.29289c.39053-.390521 1.02369-.390521 1.41422 0l2.29289 2.2929 2.2929-2.2929c.3905-.390521 1.0237-.390521 1.4142 0 .3905.39053.3905 1.02369 0 1.41422l-2.7071 2.7071v4.85389l4.2034-2.42685.9909-3.69797c.1429-.53346.6913-.85004 1.2247-.7071.5335.14294.8501.69128.7071 1.22474l-.8392 3.13215 3.1321.83926c.5335.14294.8501.69128.7071 1.22474-.1429.53343-.6912.85003-1.2247.70713l-3.698-.99089-4.203 2.42659 4.203 2.4267 3.698-.9909c.5335-.143 1.0818.1736 1.2247.7071.143.5335-.1736 1.0818-.7071 1.2247l-3.1321.8393.8392 3.1321c.143.5335-.1736 1.0819-.7071 1.2248-.5334.1429-1.0818-.1736-1.2247-.7071l-.9909-3.698-4.2034-2.4269v4.8541l2.7071 2.7071c.3905.3905.3905 1.0237 0 1.4142s-1.0237.3905-1.4142 0l-2.2929-2.2929-2.29289 2.2929c-.39053.3905-1.02369.3905-1.41422 0-.39052-.3905-.39052-1.0237 0-1.4142l2.70711-2.7071v-4.8536l-4.20347 2.4269-.99088 3.698c-.14294.5334-.69128.85-1.22474.7071-.53347-.143-.85005-.6913-.70711-1.2248l.83926-3.1321-3.13215-.8393c-.53347-.1429-.850052-.6912-.70711-1.2247.14294-.5335.69128-.8501 1.22474-.7071l3.69796.9908 4.2039-2.4271-4.20325-2.42672-3.69848.99102c-.53347.1429-1.08181-.1737-1.224748-.70713-.142942-.53346.173638-1.0818.707108-1.22474l3.13215-.83926-.83926-3.13215c-.14294-.53346.17364-1.0818.70711-1.22474s1.0818.17364 1.22474.7071l.99074 3.69748 4.20349 2.42684v-4.85339l-2.70711-2.7071c-.39052-.39053-.39052-1.02369 0-1.41422z" fill="#801ed7"/></svg>

<svg width="24" height="24" viewBox="0 0 24 24" fill="none" xmlns="http://www.w3.org/2000/svg">
<path d="M8.29289 1.29289C8.68342 0.902369 9.31658 0.902369 9.70711 1.29289L12 3.58579L14.2929 1.29289C14.6834 0.902369 15.3166 0.902369 15.7071 1.29289C16.0976 1.68342 16.0976 2.31658 15.7071 2.70711L13 5.41421V10.2681L17.2034 7.84125L18.1943 4.14328C18.3372 3.60982 18.8856 3.29324 19.419 3.43618C19.9525 3.57912 20.2691 4.12746 20.1261 4.66092L19.2869 7.79307L22.419 8.63233C22.9525 8.77527 23.2691 9.32361 23.1261 9.85707C22.9832 10.3905 22.4349 10.7071 21.9014 10.5642L18.2034 9.57331L14.0004 11.9999L18.2034 14.4266L21.9014 13.4357C22.4349 13.2927 22.9832 13.6093 23.1261 14.1428C23.2691 14.6763 22.9525 15.2246 22.419 15.3675L19.2869 16.2068L20.1261 19.3389C20.2691 19.8724 19.9525 20.4208 19.419 20.5637C18.8856 20.7066 18.3372 20.3901 18.1943 19.8566L17.2034 16.1586L13 13.7317V18.5858L15.7071 21.2929C16.0976 21.6834 16.0976 22.3166 15.7071 22.7071C15.3166 23.0976 14.6834 23.0976 14.2929 22.7071L12 20.4142L9.70711 22.7071C9.31658 23.0976 8.68342 23.0976 8.29289 22.7071C7.90237 22.3166 7.90237 21.6834 8.29289 21.2929L11 18.5858V13.7322L6.79653 16.1591L5.80565 19.8571C5.66271 20.3905 5.11437 20.7071 4.58091 20.5642C4.04744 20.4212 3.73086 19.8729 3.8738 19.3394L4.71306 16.2073L1.58091 15.368C1.04744 15.2251 0.730858 14.6768 0.8738 14.1433C1.01674 13.6098 1.56508 13.2932 2.09854 13.4362L5.7965 14.427L10.0004 11.9999L5.79715 9.57318L2.09867 10.5642C1.5652 10.7071 1.01686 10.3905 0.873922 9.85707C0.73098 9.32361 1.04756 8.77527 1.58103 8.63233L4.71318 7.79307L3.87392 4.66092C3.73098 4.12746 4.04756 3.57912 4.58103 3.43618C5.1145 3.29324 5.66283 3.60982 5.80577 4.14328L6.79651 7.84076L11 10.2676V5.41421L8.29289 2.70711C7.90237 2.31658 7.90237 1.68342 8.29289 1.29289Z" fill="#801ED7"/>
</svg>
